src/assets/images/icons/sertificatiIcon.svg

<svg width="45" height="38" viewBox="0 0 45 38" fill="none" xmlns="http://www.w3.org/2000/svg">
<path d="M1.66113 0.947266C1.125 1.10547 0.46582 1.70312 0.210938 2.25684L0 2.69629V17.2861V31.876L0.210938 32.3154C0.46582 32.8779 0.887695 33.2998 1.4502 33.5547L1.88965 33.7656H15.9346H29.9707V31.2607V28.7559L29.6543 28.3428C28.5469 26.8926 28.0195 24.7041 28.3359 22.8672C28.7666 20.4238 30.2607 18.4814 32.5371 17.4268C33.5479 16.9521 34.4531 16.7676 35.6396 16.7764C39.4717 16.8115 42.583 19.8174 42.7764 23.6582C42.8643 25.3545 42.4688 26.7607 41.5107 28.167L41.0449 28.8525V31.3047V33.7656H42.082C42.9785 33.7656 43.1719 33.7393 43.5498 33.5547C43.7959 33.4492 44.1299 33.2207 44.2881 33.0537C44.4551 32.8955 44.6836 32.5615 44.7891 32.3154L45 31.876V22.1025V12.3291L40.5 12.3027C36.0615 12.2764 35.9824 12.2676 35.499 12.0742C34.9189 11.8457 34.3477 11.3799 34.04 10.8789C33.5918 10.1758 33.5742 9.97363 33.5742 5.21875V0.806641L17.8242 0.81543C4.5 0.81543 2.00391 0.841797 1.66113 0.947266ZM30.1465 9.94727V11.2656H17.8418H5.53711V9.94727V8.62891H17.8418H30.1465V9.94727ZM26.3672 19.0879V19.791H15.9521H5.53711V19.0879V18.3848H15.9521H26.3672V19.0879ZM17.7539 23.7021V24.3613H11.6455H5.53711V23.7021V23.043H11.6455H17.7539V23.7021Z" fill="#3996F7"/>
<path d="M34.9805 5.21877C34.9805 8.16311 35.0156 9.75393 35.0771 9.92092C35.1914 10.2285 35.4727 10.5362 35.8154 10.7207C36.0527 10.8526 36.5889 10.8701 40.5439 10.8965C42.9961 10.9141 45 10.8877 45 10.8526C45 10.8174 42.75 8.52346 39.9902 5.77248L34.9805 0.762715V5.21877Z" fill="#7FAEE5"/>
<path d="M34.3652 18.2529C32.2383 18.7188 30.5684 20.2041 29.9092 22.1992C29.7158 22.7969 29.6719 23.0781 29.6719 23.9219C29.6631 25.1084 29.7773 25.6357 30.2432 26.6201C31.2188 28.668 33.1699 29.8984 35.4463 29.916C36.5449 29.916 37.1514 29.7842 38.1445 29.3096C39.6123 28.6064 40.7285 27.2705 41.1943 25.6445C41.4316 24.8359 41.4668 23.4736 41.2734 22.6914C40.6318 20.0723 38.4434 18.2705 35.7715 18.1562C35.2354 18.1387 34.7256 18.165 34.3652 18.2529Z" fill="#7FAEE5"/>
<path d="M31.377 33.6338C31.377 35.5938 31.4033 37.1934 31.4473 37.1934C31.4824 37.1934 32.4141 36.833 33.5215 36.3936L35.5254 35.585L37.4326 36.3408C38.4785 36.7627 39.4014 37.123 39.4893 37.1582C39.6299 37.2109 39.6387 37.0088 39.6387 33.6514V30.083L38.918 30.4697C37.8457 31.0322 37.1338 31.2256 35.9385 31.2783C34.4004 31.3486 33.1875 31.0762 31.9395 30.3818L31.377 30.0654V33.6338Z" fill="#7FAEE5"/>
</svg>

<svg xmlns="http://www.w3.org/2000/svg" width="45" height="38" fill="none"><path fill="#3996F7" d="M1.661.947c-.536.158-1.195.756-1.45 1.31L0 2.697V31.875l.21.44c.256.562.678.984 1.24 1.239l.44.21H29.97v-5.009l-.317-.413c-1.107-1.45-1.634-3.639-1.318-5.476.43-2.443 1.925-4.386 4.201-5.44 1.01-.475 1.916-.66 3.103-.65 3.832.034 6.943 3.04 7.136 6.881.088 1.697-.307 3.103-1.265 4.509l-.466.685v4.913h1.037c.896 0 1.09-.026 1.468-.21.246-.106.58-.334.738-.501.167-.159.396-.492.501-.739l.211-.439V12.329l-4.5-.026c-4.438-.027-4.518-.035-5.001-.229-.58-.228-1.151-.694-1.459-1.195-.448-.703-.466-.905-.466-5.66V.807l-15.75.008C4.5.815 2.004.842 1.661.947Zm28.485 9v1.319H5.537V8.629h24.61v1.318Zm-3.779 9.14v.704H5.537v-1.406h20.83v.703Zm-8.613 4.615v.66H5.537v-1.319H17.754v.66Z"/><path fill="#7FAEE5" d="M34.98 5.219c0 2.944.036 4.535.097 4.702.114.308.396.615.738.8.238.132.774.15 4.729.175 2.452.018 4.456-.008 4.456-.043 0-.036-2.25-2.33-5.01-5.08L34.98.762v4.456ZM34.365 18.253c-2.127.466-3.797 1.951-4.456 3.946-.193.598-.237.88-.237 1.723-.009 1.186.105 1.714.571 2.698.976 2.048 2.927 3.278 5.203 3.296 1.099 0 1.705-.132 2.699-.606 1.467-.704 2.583-2.04 3.05-3.665.237-.81.272-2.171.078-2.954-.641-2.619-2.83-4.42-5.502-4.535-.536-.017-1.045.009-1.406.097ZM31.377 33.634c0 1.96.026 3.56.07 3.56.035 0 .967-.361 2.075-.8l2.003-.809 1.908.756c1.045.422 1.968.782 2.056.817.14.053.15-.15.15-3.507v-3.568l-.721.387c-1.072.562-1.784.756-2.98.808-1.538.07-2.75-.202-3.999-.896l-.562-.317v3.569Z"/></svg>
